icons/outline/border-top-plus.svg

<!--
category: Design
tags: [add, top, enhance, expand, amplify, edge, extension, rise, enlarge, increase]
unicode: "fdba"
version: "3.0"
-->
<svg
  xmlns="http://www.w3.org/2000/svg"
  width="24"
  height="24"
  viewBox="0 0 24 24"
  fill="none"
  stroke="currentColor"
  stroke-width="2"
  stroke-linecap="round"
  stroke-linejoin="round"
>
  <path d="M4 4h16m-16 4v.01m16 -.01v.01m-16 3.99v.01m16 -.01v.01m-16 3.99v.01m11 -4.01h-6m3 -3v6m8 1v.01m-16 3.99v.01m4 -.01v.01m4 -.01v.01m4 -.01v.01m4 -.01v.01" />
</svg>

<!--
category: Design
tags: [add, top, enhance, expand, amplify, edge, extension, rise, enlarge, increase]
unicode: "fdba"
version: "3.0"
-->
<svg
  xmlns="http://www.w3.org/2000/svg"
  width="24"
  height="24"
  viewBox="0 0 24 24"
  fill="none"
  stroke="currentColor"
  stroke-width="2"
  stroke-linecap="round"
  stroke-linejoin="round"
>
    <path d="M4 4h16M4 8v.01M20 8v.01M4 12v.01M20 12v.01M4 16v.01M15 12h-6M12 9v6M20 16v.01M4 20v.01M8 20v.01M12 20v.01M16 20v.01M20 20v.01" />
</svg>
